X:1
T:Dr. Albertino
R:tango
L:1/8
Q:1/4=120
M:4/4
K:Dmaj clef=treble
A,B,DF ABdf- | f<a-a2 f2d2 |  zAdf z^Acf | z Bdg b4 | 
A,CE=G (3ABc eg | -g<b-ba gecA| GA c/e/ g-gfgb| ba(3fdB A4 |    
A,B,DF ABdf | f<aDE =F^FA/F/E | D=CB,B, ^DFBA | G4 z ddd| 
dBGE D2B,A,- | A,BAF EDB,A, | ^G,D F2 A,CE2 | D4 z4 |
A,B,DF ABdf- | f<a-a2 f2e2 | d/e/ A2 fd/A/ ^G2 | fd/A/ G4 z2 |
A,CE=G (3ABc eg | -g<b-bg g2 z2| gecA (3BBB (3A^G=G | FAdf a2 z2 |
A,B,DF ABdf | f<a2E =F^FA/F/E | D=CB,B, ^DFBA | G4 z ddd| 
dBGE D2B,A,- | A,BAF EDB,A, | ^G,D F2 A,CE2 | D4 z ddd |
A,B,DF ABdf | f<a2E =F^FA/F/E | D=CB,B, ^DFBA | G4 z ddd|

